X: 1
T: Allington's Jig
C: Barbara McOwen (1981)
R: jig
Z: 2006 John Chambers <jc:trillian.mit.edu>
B: Pinewoods Alternates
M: 6/8
L: 1/8
K: D
c \
| "D"d2d    dAF |      DFA     dcd | "Em"e2e     e2f |"A7"gee e2c \
| "D"d2d    dAF |"(Bm)"DFA     d2A | "G" Bcd "A7"efg | "D"fdd d2 :|
f \
| "D"aff    aff | "Em" gfg "A7"ede | "Bm"f2B "E7"Bcd | "A"ecA A2f \
| "D"aff    aff | "G " gab     bag | "D" fed "A7"edc | "D"dAF D2 |]
f \
| "D"aff    aff | "Em" gfg "A7"ede | "Bm"f2B "E7"Bcd | "A"ecA A2g \
| "D"fga "G"gab | "D"  agf "A7"edc | "G" Bcd "A7"efg | "D"fdd d2 |]
